X: 89
T: Saint Kilda's Wedding
T: Reel, A
L: 1/16
M: C|
K: A
|: A1A1A2A4 A2f2e2c2| B4c2A2 F4E2F2| A1A1A2A4 A2c2e2=g2| [1 f4f2g2 f2e2f2a2:| [2 f4f2g2 f2e2f2g2|]
|: a2g2a2b2 a2f2e2a2| f2g2a2g2 f4e2d2| c2e2f2g2 a2g2f2a2| [1 e2c2a2c2 B4c2e2:| [2 e2c2a2c2 B4A2E2|] 
D: Brenda Stubbert, House Sessions, ACC-49398, 1992
D: Jackie Dunn, Dunn to a "T", JAD-1
